svgs/alazan.svg

<svg xmlns="http://www.w3.org/2000/svg" viewBox="0 0 192 192"><path d="M174.094 84.3c.001 26.858-16.176 51.072-40.989 61.35-24.819 10.288-53.39 4.607-72.385-14.393-19-18.995-24.681-47.567-14.393-72.385 10.278-24.813 34.491-40.991 61.349-40.99" fill="none" stroke="#000" stroke-width="8" stroke-linecap="round" stroke-linejoin="round"/><path d="M174.515 83.552c5.395 34.02-11.734 67.644-42.425 83.28-30.686 15.638-67.952 9.737-92.305-14.617C15.431 127.862 9.53 90.596 25.168 59.91c15.637-30.691 49.26-47.82 83.28-42.425m-4.962 65.413 41.149 24.782m-36.94-16.366.409-58.964m55.376 18.798-10.049-5.925-9.979 5.789 2.53-11.391-8.589-7.701 11.615-1.114 4.671-10.549 4.648 10.704 11.475 1.181-8.74 7.73 2.418 11.275Z" fill="none" stroke="#000" stroke-width="8" stroke-linecap="round" stroke-linejoin="round"/></svg>

<svg
    xmlns="http://www.w3.org/2000/svg"
    viewBox="0 0 192 192"
    id="vector">
    <path
        id="path"
        d="M 174.094 84.3 C 174.095 111.158 157.918 135.372 133.105 145.65 C 108.286 155.938 79.715 150.257 60.72 131.257 C 41.72 112.262 36.039 83.69 46.327 58.872 C 56.605 34.059 80.818 17.881 107.676 17.882"
        fill="none"
        stroke="#000000"
        stroke-width="8"
        stroke-linecap="round"
        stroke-linejoin="round"/>
    <path
        id="path_1"
        d="M 174.515 83.552 C 179.91 117.572 162.781 151.196 132.09 166.832 C 101.404 182.47 64.138 176.569 39.785 152.215 C 15.431 127.862 9.53 90.596 25.168 59.91 C 40.805 29.219 74.428 12.09 108.448 17.485 M 103.486 82.898 L 144.635 107.68 M 107.695 91.314 L 108.104 32.35 M 163.48 51.148 L 153.431 45.223 L 143.452 51.012 L 145.982 39.621 L 137.393 31.92 L 149.008 30.806 L 153.679 20.257 L 158.327 30.961 L 169.802 32.142 L 161.062 39.872 L 163.48 51.147 Z"
        fill="none"
        stroke="#000000"
        stroke-width="8"
        stroke-linecap="round"
        stroke-linejoin="round"/>
</svg>
